X: 261
T: Fang fengzheng
L: 1/16
M: 2/4
K: C
c2 c EG4 [I:setbarnb 1]| 
c2 e dc4 | 
c A e2 e A d2 | 
c2 c EG4 | 
e C2 d e2 e d | 
c A c E2< G2 A | 
d d c e d c c G | 
G F E DC4 | 
G G D E2< G2 A | 
d d c e d c c G | 
G F E DC4 |]

@@@ Tune index: 9135
